web/packages/design/src/ResourceIcon/assets/rippling-dark.svg

<svg width="72" height="72" viewBox="0 0 72 72" fill="none" xmlns="http://www.w3.org/2000/svg">
<g clip-path="url(#clip0_16966_4735)">
<path d="M8.65889 24.0151C8.65889 18.058 5.64122 13.1358 0 9.00195H13.1117C15.423 10.7624 17.2958 13.0336 18.5834 15.6381C19.871 18.2426 20.5386 21.1097 20.534 24.0151C20.5386 26.9205 19.871 29.7876 18.5834 32.3921C17.2958 34.9966 15.423 37.2679 13.1117 39.0283C17.3689 40.8034 19.7909 45.1358 19.7909 51.3367V63.1516H7.91876V51.3367C7.91876 45.4307 5.09966 41.2968 0.00300865 39.0313C5.64423 34.8944 8.6619 29.9752 8.6619 24.0181L8.65889 24.0151ZM34.3889 24.0151C34.3889 18.058 31.3712 13.1358 25.73 9.00195H38.8447C41.1555 10.7627 43.0276 13.0341 44.3147 15.6386C45.6018 18.243 46.269 21.11 46.264 24.0151C46.269 26.9203 45.6018 29.7872 44.3147 32.3917C43.0276 34.9961 41.1555 37.2675 38.8447 39.0283C43.0989 40.8034 45.5239 45.1358 45.5239 51.3367V63.1516H33.6487V51.3367C33.6487 45.4307 30.8266 41.2968 25.73 39.0313C31.3712 34.8944 34.3889 29.9752 34.3889 24.0181V24.0151ZM60.1248 24.0151C60.1248 18.058 57.1072 13.1358 51.466 9.00195H64.5776C66.889 10.7624 68.7617 13.0336 70.0494 15.6381C71.337 18.2426 72.0046 21.1097 72 24.0151C72.0046 26.9205 71.337 29.7876 70.0494 32.3921C68.7617 34.9966 66.889 37.2679 64.5776 39.0283C68.8349 40.8034 71.2568 45.1358 71.2568 51.3367V63.1516H59.3817V51.3367C59.3817 45.4307 56.5626 41.2968 51.466 39.0313C57.1072 34.8944 60.1248 29.9752 60.1248 24.0181V24.0151Z" fill="white"/>
</g>
<defs>
<clipPath id="clip0_16966_4735">
<rect width="72" height="72" fill="white" transform="translate(0 0.00195312)"/>
</clipPath>
</defs>
</svg>

<svg xmlns="http://www.w3.org/2000/svg" width="72" height="72" fill="none" viewBox="0 0 72 72"><g clip-path="url(#a)"><path fill="#fff" d="M8.659 24.015c0-5.957-3.018-10.88-8.659-15.013h13.112a18.83 18.83 0 0 1 7.422 15.013 18.84 18.84 0 0 1-7.422 15.013c4.257 1.775 6.679 6.108 6.679 12.309v11.815H7.919V51.337c0-5.906-2.82-10.04-7.916-12.306 5.641-4.137 8.659-9.056 8.659-15.013zm25.73 0c0-5.957-3.018-10.88-8.659-15.013h13.115a18.83 18.83 0 0 1 7.419 15.013 18.83 18.83 0 0 1-7.42 15.013c4.255 1.775 6.68 6.108 6.68 12.309v11.815H33.649V51.337c0-5.906-2.822-10.04-7.919-12.306 5.641-4.137 8.659-9.056 8.659-15.013zm25.736 0c0-5.957-3.018-10.88-8.659-15.013h13.112A18.84 18.84 0 0 1 72 24.015a18.84 18.84 0 0 1-7.422 15.013c4.257 1.775 6.679 6.108 6.679 12.309v11.815H59.382V51.337c0-5.906-2.82-10.04-7.916-12.306 5.641-4.137 8.659-9.056 8.659-15.013z"/></g><defs><clipPath id="a"><path fill="#fff" d="M0 .002h72v72H0z"/></clipPath></defs></svg>
